X: 1403
T: Col McBain
M:C|
L:1/8
N:"collected by F. O'Neill"
B:O'Neill's 1403
Z:"Transcribed by Bob Safranek, rjs@gsp.org"
K:Em
(EF) |    GBEF GEBE | FADE FDAD | GBEF    GEBE  | FADF E2 (EF) |
          GBEF GEBE | FADE FDAD | G2 (GF) GBdB  | AFDF E2      ||
(EF) | G2 (GF) GBdB | ABAG FAAF | Eee^d e2 (ef) | gefd Beef    |
          gfge dedB | ABAG FGAF | Beed    BcdB  | AFDF E2      |]


